X: 1450
T: The Roving Bachelor
M:C|
L:1/8
N:"collected by J. O'Neill"
B:O'Neill's 1450
Z:"Transcribed by Bob Safranek, rjs@gsp.org"
K:G
(G"   Sign"A) | B2 {c}BA B2 ge | d2 ge dBGA    | B2 {c}BA B2 ge | dBAB  GFED  |
       B2 {c}BA B2 ge | d2 ge dBGA    | B2 {c}BA B2 ge | fe^df "    Fine"e2   ||
(ef) | gfed     eBBd  | gfed  e2 (ef) | gfed     eBBA  | Be^df e2 (ef)        |
       gfed     eBBd  | gfed  e2  ef  | gbag     fage  | d2 (ge) dBG"   Sign"A|]


